src/assets/download-google-play.svg

<svg width="174" height="43" viewBox="0 0 174 43" fill="none" xmlns="http://www.w3.org/2000/svg">
<path d="M170.666 25.4495L167.595 33.3005H167.503L164.298 25.4495H161.4L166.201 36.4272L163.458 42.5311H166.274L173.678 25.4495H170.669H170.666ZM148.959 18.9347H146.275V37.045H148.959V18.9347ZM138.863 18.9347H132.413V37.045H135.116V30.19H138.873C142.032 30.2989 144.681 27.817 144.789 24.644C144.789 24.6195 144.789 24.5923 144.789 24.5678C144.724 21.3893 142.102 18.8667 138.936 18.9347C138.911 18.9347 138.884 18.9347 138.86 18.9347H138.863ZM138.933 27.6592H135.113V21.4927H138.944C140.641 21.4927 142.016 22.8724 142.016 24.576C142.016 26.2795 140.641 27.6592 138.944 27.6592H138.933ZM155.571 25.0576C153.562 24.9433 151.678 26.0319 150.77 27.8334L153.166 28.862C153.652 27.9721 154.617 27.4551 155.623 27.5476C157.04 27.4061 158.304 28.4429 158.448 29.8662C158.448 29.8716 158.448 29.8743 158.448 29.8798V30.0648C157.588 29.5995 156.628 29.3546 155.652 29.3546C153.082 29.3546 150.461 30.7724 150.461 33.4665C150.461 35.8911 152.559 37.4532 154.934 37.4532C156.311 37.5402 157.626 36.8626 158.353 35.6843H158.456V37.0831H161.077V30.1138C161.077 26.8972 158.681 25.1093 155.59 25.1093L155.568 25.0576H155.571ZM155.254 34.9849C154.373 34.9849 153.145 34.5332 153.145 33.442C153.145 32.0432 154.671 31.5098 156.002 31.5098C156.862 31.4881 157.71 31.6976 158.458 32.1167C158.255 33.7413 156.886 34.9659 155.254 34.9849ZM58.1668 37.4314C52.8639 37.4477 48.5342 33.1834 48.4502 27.8633C48.5342 22.5432 52.8639 18.2762 58.1668 18.2952C60.6203 18.2544 62.9844 19.2068 64.7303 20.9376L62.8759 22.7772C61.618 21.5417 59.9263 20.8532 58.1668 20.8668C54.3387 20.8668 51.2345 23.9827 51.2345 27.8252C51.2345 31.6677 54.3387 34.7836 58.1668 34.7836C59.9751 34.857 61.7319 34.1604 63.0006 32.8623C63.833 31.9616 64.3372 30.7996 64.424 29.5723H58.1668V27.0333H66.9724C67.0673 27.5721 67.1134 28.1191 67.1053 28.6688C67.1947 30.9438 66.3787 33.1617 64.8415 34.8353C63.0847 36.615 60.6583 37.562 58.1668 37.4368V37.4314ZM80.7231 31.2649C80.8614 34.6339 78.2506 37.4776 74.8969 37.6164C71.5406 37.7552 68.7075 35.1346 68.5692 31.7684C68.5611 31.6024 68.5611 31.4336 68.5692 31.2676C68.431 27.8987 71.0418 25.0549 74.3954 24.9161C77.7517 24.7773 80.5848 27.398 80.7231 30.7642C80.7312 30.9302 80.7312 31.0989 80.7231 31.2649ZM78.0608 31.2649C78.2397 29.3709 76.8571 27.6919 74.9701 27.5122C73.0832 27.3326 71.4105 28.7205 71.2315 30.6145C71.2099 30.8322 71.2099 31.0499 71.2315 31.2649C71.0526 33.1589 72.4353 34.838 74.3222 35.0176C76.2091 35.1972 77.8819 33.8093 78.0608 31.9153C78.0825 31.6976 78.0825 31.4799 78.0608 31.2649ZM94.3409 31.2649C94.3409 34.6312 91.6217 37.3606 88.2681 37.3606C84.9144 37.3606 82.1952 34.6312 82.1952 31.2649C82.1952 27.8987 84.9144 25.1692 88.2681 25.1692C91.6217 25.1692 94.3409 27.8987 94.3409 31.2649ZM91.6895 31.2649C91.8684 29.3709 90.4858 27.6919 88.5988 27.5122C86.7119 27.3326 85.0392 28.7205 84.8602 30.6145C84.8385 30.8322 84.8385 31.0499 84.8602 31.2649C84.6813 33.1589 86.064 34.838 87.9509 35.0176C89.8378 35.1972 91.5105 33.8093 91.6895 31.9153C91.7112 31.6976 91.7112 31.4799 91.6895 31.2649ZM107.631 25.4794V36.5497C107.631 41.0915 104.939 42.9638 101.764 42.9638C99.3836 42.9828 97.2282 41.565 96.2956 39.3662L98.619 38.3376C99.1125 39.6193 100.322 40.482 101.691 40.5255C103.738 40.5255 104.987 39.2601 104.987 36.9089V36.0245H104.884C104.071 36.9334 102.908 37.4477 101.691 37.4314C98.2964 37.4314 95.5474 34.6693 95.5474 31.2649C95.5474 27.8606 98.2991 25.0985 101.691 25.0985C102.916 25.0712 104.093 25.572 104.925 26.4754H105.028V25.4468H107.628V25.4767L107.631 25.4794ZM105.245 31.2976C105.399 29.3791 103.976 27.6973 102.065 27.5422C102.03 27.5395 101.992 27.5367 101.956 27.534C99.9909 27.5993 98.4482 29.2539 98.5133 31.2268C98.5133 31.2486 98.5133 31.2731 98.516 31.2949C98.4238 33.2515 99.9312 34.9115 101.88 35.0013C101.905 35.0013 101.932 35.0013 101.956 35.004C103.849 34.9305 105.324 33.3304 105.25 31.4309C105.25 31.3847 105.245 31.3411 105.242 31.2949L105.245 31.2976ZM112.372 18.9538V37.0531H109.669V18.9538H112.372ZM123.022 33.3005L125.131 34.6992C123.987 36.4136 122.065 37.4395 120.012 37.4341C116.726 37.4804 114.026 34.8462 113.98 31.5479C113.98 31.4554 113.98 31.3602 113.98 31.2676C113.712 28.1463 116.013 25.3951 119.123 25.1257C121.745 24.8971 124.177 26.5163 124.987 29.028L125.264 29.7383L117.073 33.1399C117.597 34.3182 118.779 35.0584 120.064 35.0094C121.278 34.9904 122.395 34.3454 123.022 33.3032V33.3005ZM116.561 31.0799L122.07 28.7994C121.634 27.9422 120.733 27.4306 119.776 27.4932C117.917 27.5748 116.477 29.1532 116.558 31.02C116.558 31.0391 116.558 31.0608 116.561 31.0799Z" fill="white"/>
<path d="M17.5979 19.9282L0.160156 38.2671C0.870464 40.7897 3.48396 42.2592 5.99715 41.5462C6.37941 41.4374 6.74541 41.2823 7.08701 41.0836L26.7099 29.8664L17.6006 19.9282H17.5979Z" fill="#EA4335"/>
<path d="M35.2308 16.8095L26.745 11.9302L17.1938 20.3444L26.783 29.8391L35.2037 25.0142C37.462 23.8277 38.3323 21.0302 37.1502 18.7634C36.7137 17.9279 36.036 17.2476 35.2037 16.8095H35.2308Z" fill="#FBBC04"/>
<path d="M0.157243 3.46708C0.0515103 3.85894 0 4.2617 0 4.66717V37.067C0 37.4724 0.0542214 37.8752 0.157243 38.2671L18.1942 20.3963L0.157243 3.46436V3.46708Z" fill="#4285F4"/>
<path d="M17.7281 20.8669L26.7452 11.9329L7.14937 0.664012C6.41195 0.231326 5.57422 1.56452e-05 4.72022 1.56452e-05C2.60014 -0.00542695 0.734909 1.40965 0.160156 3.45607L17.7281 20.8697V20.8669Z" fill="#34A853"/>
<path d="M53.0075 12.0985C50.2287 12.0985 48.4502 10.0629 48.4502 6.88718C48.4502 3.71142 50.2233 1.7793 53.0075 1.7793C55.1574 1.7793 56.7922 3.05831 57.1637 5.04486H55.8596C55.4448 3.69509 54.4038 2.92768 53.0048 2.92768C50.958 2.92768 49.7244 4.40807 49.7244 6.87901C49.7244 9.34995 50.9796 10.9474 53.0048 10.9474C54.7698 10.9474 55.9843 9.79897 55.9843 8.12265V7.94304H53.1783V6.84908H57.226V7.79609C57.226 10.4956 55.6617 12.093 53.0075 12.093V12.0985Z" fill="white"/>
<path d="M64.9773 11.9325H58.8149V1.94531H64.9773V3.06649H60.0539V6.26946H64.7224V7.37703H60.0539V10.8086H64.9773V11.9298V11.9325Z" fill="white"/>
<path d="M69.1304 11.9325V3.06649H65.9937V1.94531H73.5088V3.06649H70.3721V11.9325H69.1304Z" fill="white"/>
<path d="M77.7139 11.9325V1.94531H78.9555V11.9325H77.7139Z" fill="white"/>
<path d="M80.8857 11.9325V1.94531H82.0922L87.5388 9.78538H87.6011V1.94531H88.8293V11.9325H87.6228L82.1762 4.11963H82.1139V11.9325H80.8857Z" fill="white"/>
<path d="M102.439 6.9416C102.439 10.1119 100.674 12.0985 97.8545 12.0985C95.0349 12.0985 93.27 10.1119 93.27 6.9416C93.27 3.77129 95.0349 1.7793 97.8545 1.7793C100.674 1.7793 102.439 3.77129 102.439 6.9416ZM94.5442 6.9416C94.5442 9.39894 95.8184 10.9474 97.8545 10.9474C99.8905 10.9474 101.165 9.39621 101.165 6.9416C101.165 4.48699 99.8905 2.92768 97.8545 2.92768C95.8184 2.92768 94.5442 4.47883 94.5442 6.9416Z" fill="white"/>
<path d="M103.981 11.9325V1.94531H105.188L110.634 9.78538H110.697V1.94531H111.925V11.9325H110.719L105.272 4.11963H105.21V11.9325H103.981Z" fill="white"/>
</svg>

<svg xmlns="http://www.w3.org/2000/svg" width="174" height="43" fill="none" viewBox="0 0 174 43">
    <path fill="#fff" d="m170.666 25.45-3.071 7.85h-.092l-3.205-7.85H161.4l4.801 10.977-2.743 6.104h2.816l7.404-17.081h-3.012Zm-21.707-6.515h-2.684v18.11h2.684v-18.11Zm-10.096 0h-6.45v18.11h2.703V30.19h3.757c3.159.109 5.808-2.373 5.916-5.546v-.076c-.065-3.179-2.687-5.701-5.853-5.633h-.076.003Zm.07 8.724h-3.82v-6.166h3.831a3.077 3.077 0 0 1 3.072 3.083 3.077 3.077 0 0 1-3.072 3.083h-.011Zm16.638-2.601a5.054 5.054 0 0 0-4.801 2.775l2.396 1.029a2.537 2.537 0 0 1 2.457-1.314 2.585 2.585 0 0 1 2.825 2.318v.199a5.875 5.875 0 0 0-2.796-.71c-2.57 0-5.191 1.417-5.191 4.112 0 2.424 2.098 3.986 4.473 3.986a3.74 3.74 0 0 0 3.419-1.769h.103v1.4h2.621v-6.97c0-3.217-2.396-5.005-5.487-5.005l-.022-.051h.003Zm-.317 9.927c-.881 0-2.109-.452-2.109-1.543 0-1.399 1.526-1.932 2.857-1.932a4.776 4.776 0 0 1 2.456.607 3.27 3.27 0 0 1-3.204 2.868ZM58.167 37.43c-5.303.017-9.633-4.248-9.717-9.568.084-5.32 4.414-9.587 9.717-9.568a9.105 9.105 0 0 1 6.563 2.643l-1.854 1.84a6.648 6.648 0 0 0-4.71-1.911c-3.827 0-6.931 3.116-6.931 6.958 0 3.843 3.104 6.959 6.932 6.959A6.396 6.396 0 0 0 63 32.862a5.415 5.415 0 0 0 1.423-3.29h-6.257v-2.539h8.805c.095.54.141 1.086.133 1.636a8.62 8.62 0 0 1-2.264 6.166 8.762 8.762 0 0 1-6.674 2.602v-.006Zm22.556-6.166c.138 3.369-2.472 6.213-5.826 6.351-3.356.14-6.19-2.481-6.328-5.848a5.164 5.164 0 0 1 0-.5c-.138-3.37 2.473-6.213 5.826-6.352 3.357-.139 6.19 2.482 6.328 5.848.008.166.008.335 0 .5Zm-2.662 0a3.438 3.438 0 0 0-3.09-3.753 3.432 3.432 0 0 0-3.74 3.753 3.438 3.438 0 0 0 3.091 3.753 3.432 3.432 0 0 0 3.739-3.753Zm16.28 0c0 3.366-2.72 6.096-6.073 6.096-3.354 0-6.073-2.73-6.073-6.096s2.72-6.096 6.073-6.096c3.354 0 6.073 2.73 6.073 6.096Zm-2.651 0a3.438 3.438 0 0 0-3.091-3.753 3.432 3.432 0 0 0-3.739 3.753 3.438 3.438 0 0 0 3.09 3.753 3.432 3.432 0 0 0 3.74-3.753Zm15.941-5.786v11.07c0 4.543-2.692 6.415-5.867 6.415a5.889 5.889 0 0 1-5.468-3.598l2.323-1.028a3.411 3.411 0 0 0 3.072 2.188c2.047 0 3.296-1.266 3.296-3.617v-.884h-.103a4.21 4.21 0 0 1-3.193 1.406c-3.395 0-6.144-2.762-6.144-6.166 0-3.404 2.752-6.166 6.144-6.166a4.266 4.266 0 0 1 3.234 1.376h.103v-1.028h2.6v.03l.003.002Zm-2.386 5.819a3.482 3.482 0 0 0-3.18-3.756l-.109-.008a3.572 3.572 0 0 0-3.44 3.76 3.538 3.538 0 0 0 3.364 3.707c.025 0 .052 0 .076.003a3.436 3.436 0 0 0 3.294-3.573c0-.046-.005-.09-.008-.136l.003.003Zm7.127-12.344v18.1h-2.703v-18.1h2.703Zm10.65 14.346 2.109 1.4a6.137 6.137 0 0 1-5.119 2.734c-3.286.046-5.986-2.588-6.032-5.886v-.28c-.268-3.122 2.033-5.873 5.143-6.142a5.65 5.65 0 0 1 5.864 3.902l.277.71-8.191 3.402a3.143 3.143 0 0 0 2.991 1.87 3.516 3.516 0 0 0 2.958-1.707v-.002Zm-6.461-2.22 5.509-2.28a2.396 2.396 0 0 0-2.294-1.307 3.376 3.376 0 0 0-3.215 3.587Z"/>
    <path fill="#EA4335" d="M17.598 19.928.16 38.268c.71 2.522 3.324 3.991 5.837 3.278a4.756 4.756 0 0 0 1.09-.462L26.71 29.866l-9.11-9.938h-.002Z"/>
    <path fill="#FBBC04" d="m35.23 16.81-8.485-4.88-9.551 8.414 9.589 9.495 8.42-4.825a4.638 4.638 0 0 0 0-8.204h.028Z"/>
    <path fill="#4285F4" d="M.157 3.467A4.6 4.6 0 0 0 0 4.667v32.4c0 .405.054.808.157 1.2l18.037-17.87L.157 3.463v.003Z"/>
    <path fill="#34A853" d="m17.728 20.867 9.017-8.934L7.15.664A4.801 4.801 0 0 0 4.72 0 4.73 4.73 0 0 0 .16 3.456L17.728 20.87v-.003Z"/>
    <path fill="#fff" d="M53.008 12.098c-2.78 0-4.558-2.035-4.558-5.21 0-3.177 1.773-5.109 4.557-5.109 2.15 0 3.785 1.28 4.157 3.266H55.86c-.415-1.35-1.456-2.117-2.855-2.117-2.047 0-3.28 1.48-3.28 3.951s1.255 4.068 3.28 4.068c1.765 0 2.98-1.148 2.98-2.824v-.18h-2.807V6.849h4.048v.947c0 2.7-1.564 4.297-4.218 4.297v.005ZM64.977 11.932h-6.162V1.945h6.162v1.121h-4.923V6.27h4.668v1.108h-4.668v3.432h4.923v1.123ZM69.13 11.932V3.066h-3.136v-1.12h7.515v1.12h-3.137v8.866H69.13ZM77.714 11.932V1.945h1.242v9.987h-1.242ZM80.886 11.932V1.945h1.206l5.447 7.84h.062v-7.84h1.228v9.987h-1.206L82.176 4.12h-.062v7.812h-1.228ZM102.439 6.942c0 3.17-1.765 5.156-4.584 5.156-2.82 0-4.585-1.986-4.585-5.156s1.765-5.163 4.585-5.163c2.819 0 4.584 1.992 4.584 5.163Zm-7.895 0c0 2.457 1.274 4.005 3.31 4.005 2.037 0 3.311-1.55 3.311-4.005s-1.275-4.014-3.31-4.014c-2.037 0-3.31 1.55-3.31 4.014ZM103.981 11.932V1.945h1.207l5.446 7.84h.063v-7.84h1.228v9.987h-1.206l-5.447-7.812h-.062v7.812h-1.229Z"/>
</svg>
